flaticon/weather/wind.svg

<svg xmlns="http://www.w3.org/2000/svg" width="32" height="32" viewBox="0 0 24 24">
    <path d="M14.878906 9.601562C17.261719 9.601562 19.199219 7.660156 19.199219 5.28125 19.199219 2.898438 17.261719.960938 14.878906.960938 14.613281.960938 14.398438 1.175781 14.398438 1.441406 14.398438 1.703125 14.613281 1.921875 14.878906 1.921875 16.734375 1.921875 18.238281 3.425781 18.238281 5.28125 18.238281 7.132812 16.734375 8.640625 14.878906 8.640625L4.320312 8.640625C1.9375 8.640625 0 10.578125 0 12.960938 0 13.226562.214844 13.441406.480469 13.441406.746094 13.441406.960938 13.226562.960938 12.960938.960938 11.105469 2.46875 9.601562 4.320312 9.601562zM18.238281 14.398438L8.640625 14.398438C8.375 14.398438 8.160156 14.613281 8.160156 14.878906 8.160156 15.144531 8.375 15.359375 8.640625 15.359375L18.238281 15.359375C20.09375 15.359375 21.601562 16.867188 21.601562 18.71875 21.601562 20.574219 20.09375 22.078125 18.238281 22.078125 17.976562 22.078125 17.761719 22.296875 17.761719 22.558594 17.761719 22.824219 17.976562 23.039062 18.238281 23.039062 20.621094 23.039062 22.558594 21.101562 22.558594 18.71875 22.558594 16.339844 20.621094 14.398438 18.238281 14.398438zM18.238281 14.398438"/>
    <path d="M12.960938 5.761719C13.226562 5.761719 13.441406 5.546875 13.441406 5.28125 13.441406 4.484375 14.085938 3.839844 14.878906 3.839844 15.675781 3.839844 16.320312 4.484375 16.320312 5.28125 16.320312 6.074219 15.675781 6.71875 14.878906 6.71875 14.613281 6.71875 14.398438 6.933594 14.398438 7.199219 14.398438 7.464844 14.613281 7.679688 14.878906 7.679688 16.203125 7.679688 17.28125 6.601562 17.28125 5.28125 17.28125 3.957031 16.203125 2.878906 14.878906 2.878906 13.554688 2.878906 12.480469 3.957031 12.480469 5.28125 12.480469 5.546875 12.695312 5.761719 12.960938 5.761719zM20.640625 18.71875C20.640625 17.398438 19.5625 16.320312 18.238281 16.320312 17.976562 16.320312 17.761719 16.535156 17.761719 16.800781 17.761719 17.066406 17.976562 17.28125 18.238281 17.28125 19.035156 17.28125 19.679688 17.925781 19.679688 18.71875 19.679688 19.515625 19.035156 20.160156 18.238281 20.160156 17.445312 20.160156 16.800781 19.515625 16.800781 18.71875 16.800781 18.453125 16.585938 18.238281 16.320312 18.238281 16.054688 18.238281 15.839844 18.453125 15.839844 18.71875 15.839844 20.042969 16.917969 21.121094 18.238281 21.121094 19.5625 21.121094 20.640625 20.042969 20.640625 18.71875zM15.359375 16.320312L12.480469 16.320312C12.214844 16.320312 12 16.535156 12 16.800781 12 17.066406 12.214844 17.28125 12.480469 17.28125L15.359375 17.28125C15.625 17.28125 15.839844 17.066406 15.839844 16.800781 15.839844 16.535156 15.625 16.320312 15.359375 16.320312zM10.078125 7.679688L12.960938 7.679688C13.226562 7.679688 13.441406 7.464844 13.441406 7.199219 13.441406 6.933594 13.226562 6.71875 12.960938 6.71875L10.078125 6.71875C9.816406 6.71875 9.601562 6.933594 9.601562 7.199219 9.601562 7.464844 9.816406 7.679688 10.078125 7.679688zM19.679688 11.039062C19.679688 10.773438 19.464844 10.558594 19.199219 10.558594L4.320312 10.558594C4.054688 10.558594 3.839844 10.773438 3.839844 11.039062 3.839844 11.304688 4.054688 11.519531 4.320312 11.519531L19.199219 11.519531C19.464844 11.519531 19.679688 11.304688 19.679688 11.039062zM23.519531 12.480469L6.238281 12.480469C5.976562 12.480469 5.761719 12.695312 5.761719 12.960938 5.761719 13.226562 5.976562 13.441406 6.238281 13.441406L23.519531 13.441406C23.785156 13.441406 24 13.226562 24 12.960938 24 12.695312 23.785156 12.480469 23.519531 12.480469zM23.519531 12.480469"/>
</svg>

<svg xmlns="http://www.w3.org/2000/svg" width="32" height="32" viewBox="0 0 24 24">
    <path d="M14.879 9.602a4.327 4.327 0 0 0 4.32-4.32A4.324 4.324 0 0 0 14.88.96a.48.48 0 1 0 0 .96 3.36 3.36 0 1 1 0 6.72H4.32A4.324 4.324 0 0 0 0 12.96a.48.48 0 1 0 .96 0A3.362 3.362 0 0 1 4.32 9.6zm0 0M18.238 14.398H8.641a.48.48 0 1 0 0 .961h9.597a3.365 3.365 0 0 1 3.364 3.36 3.363 3.363 0 0 1-3.364 3.36.48.48 0 1 0 0 .96 4.324 4.324 0 0 0 4.32-4.32 4.327 4.327 0 0 0-4.32-4.32zm0 0"/>
    <path d="M12.96 5.762a.48.48 0 0 0 .481-.48 1.44 1.44 0 1 1 1.438 1.437.48.48 0 1 0 0 .96 2.405 2.405 0 0 0 2.402-2.398A2.406 2.406 0 0 0 14.88 2.88 2.402 2.402 0 0 0 12.48 5.28c0 .266.215.48.48.48zm0 0M20.64 18.719a2.405 2.405 0 0 0-2.402-2.399.48.48 0 0 0-.476.48c0 .266.215.481.476.481a1.44 1.44 0 1 1-1.437 1.438.48.48 0 1 0-.961 0 2.405 2.405 0 0 0 2.398 2.402 2.406 2.406 0 0 0 2.403-2.402zm0 0M15.36 16.32h-2.88a.48.48 0 1 0 0 .961h2.88a.48.48 0 1 0 0-.96zm0 0M10.078 7.68h2.883a.48.48 0 1 0 0-.961h-2.883a.48.48 0 0 0-.476.48c0 .266.214.48.476.48zm0 0M19.68 11.04a.48.48 0 0 0-.48-.481H4.32a.48.48 0 1 0 0 .96H19.2a.48.48 0 0 0 .48-.48zm0 0M23.52 12.48H6.238a.48.48 0 0 0-.476.48c0 .267.215.481.476.481H23.52a.48.48 0 1 0 0-.96zm0 0"/>
</svg>
